X: 15
T: Swedish Waltz, The
M: 3/4
L: 1/4
Q: 90
R: waltz
K: D
f/g/|"D"a  f  d| "Bm" A  F  D| "G"G/F/ G/A/ B/c/|"Em" B2 c/B/|
"A"A/B/ c/d/ e/f/| e  c  A| "D"d/c/ d/e/ f/g/| a2 f/g/|
 "D"a  f  d|  "Bm" A  F  D|  "G" G/F/ G/A/ B/c/| "Em"B2 c/B/|
"A7"A/B/c/d/e/f/| g  B  c|  "D" d> c/ d/e/| d2 f/g/||
  "D"a/g/ f/e/ d/c/| d/c/ B/A/ B/c/| d  F> G/| A2 f/g/|
a/g/f/e/d/c/| d  c  d|  "A7"e>  d/ e/f/| e2  f/g/|
"D" a  f  d|  "G"g2 a/g/|"D" f  e  d| "G"B> c/ d/A/|
"D"f> g/ f/e/|  "A7"e> f/ e/c/| "D" d> c/ d/e/| d4||
